src/assets/icon-app-bitcoin.svg

<svg width="66" height="66" viewBox="0 0 66 66" fill="none" xmlns="http://www.w3.org/2000/svg">
<rect width="66" height="66" rx="12" fill="url(#paint0_linear)"/>
<g clip-path="url(#clip0)">
<path d="M45.6091 36.9016C44.9803 35.5355 43.8114 34.427 42.1024 33.5767C44.6772 32.9335 46.1499 31.173 46.5216 28.295C46.6642 27.2531 46.5864 26.3037 46.2877 25.4453C45.9888 24.5865 45.4909 23.8368 44.7918 23.1951C44.0935 22.553 43.2995 22.0036 42.4123 21.5464C41.5248 21.0892 40.4826 20.6653 39.2863 20.2753L40.6354 14.4317L37.0646 13.6073L35.753 19.2885C35.1347 19.1458 34.1882 18.9435 32.9135 18.6818L34.2359 12.9543L30.6647 12.1298L29.3156 17.9733C28.8017 17.871 28.0502 17.7058 27.0609 17.4774L22.1504 16.3191L21.2724 20.1221L23.8462 20.7163C25.0211 20.9876 25.5876 21.6721 25.5459 22.7696L24.0094 29.4248C24.1642 29.4606 24.2859 29.497 24.3752 29.5339L24.004 29.4482L21.852 38.7696C21.5465 39.5294 21.0072 39.8204 20.2341 39.6419L17.6606 39.0477L15.9619 43.1254L20.5997 44.1961C20.8934 44.2639 21.3174 44.3659 21.8725 44.5014C22.4272 44.6377 22.8435 44.7379 23.1218 44.8021L21.7567 50.7151L25.3285 51.5397L26.6775 45.6963C27.323 45.862 28.2642 46.0872 29.5009 46.3727L28.1573 52.1928L31.728 53.0172L33.0932 47.1042C34.3753 47.3352 35.5265 47.4795 36.5471 47.5354C37.5682 47.5914 38.5691 47.542 39.5494 47.3854C40.5295 47.2293 41.3837 46.9499 42.1114 46.548C42.8393 46.1467 43.4963 45.5734 44.084 44.8296C44.6703 44.0856 45.1449 43.1775 45.5062 42.1045C46.204 40.0029 46.2379 38.2683 45.6091 36.9016ZM32.0195 22.8712C32.1278 22.8962 32.434 22.9628 32.9382 23.071C33.4427 23.1791 33.8617 23.2678 34.1958 23.3367C34.53 23.4058 34.9739 23.5287 35.5276 23.7054C36.0812 23.882 36.5421 24.0537 36.9107 24.2201C37.2792 24.3864 37.6753 24.6122 38.0976 24.897C38.5208 25.1818 38.8415 25.4839 39.0606 25.8031C39.2802 26.1224 39.4409 26.5016 39.5428 26.9404C39.6453 27.3792 39.6375 27.8537 39.5198 28.3637C39.4198 28.7966 39.2594 29.1749 39.0383 29.4986C38.8175 29.8221 38.5395 30.0714 38.2063 30.2469C37.8729 30.4223 37.5382 30.5651 37.2034 30.6749C36.8689 30.7848 36.4607 30.8413 35.9798 30.8441C35.499 30.8471 35.0813 30.8403 34.7272 30.8235C34.3728 30.8069 33.9379 30.7514 33.4223 30.6567C32.9067 30.5619 32.5165 30.4884 32.2521 30.4354C31.9874 30.3824 31.6281 30.2994 31.1736 30.1865C30.7191 30.0735 30.4537 30.0079 30.3762 29.99L32.0198 22.8712L32.0195 22.8711L32.0195 22.8712ZM38.125 40.9136C37.8956 41.2354 37.6351 41.5011 37.3427 41.7106C37.05 41.9193 36.6909 42.0809 36.266 42.1942C35.8411 42.3081 35.4362 42.3853 35.0523 42.427C34.6679 42.469 34.2139 42.4776 33.6905 42.4548C33.166 42.4314 32.7106 42.3951 32.3225 42.3465C31.935 42.2978 31.4759 42.2242 30.9447 42.1262C30.4141 42.0277 30.0014 41.9448 29.7078 41.877C29.414 41.8092 29.0439 41.7193 28.5973 41.6083C28.1504 41.4975 27.8656 41.4276 27.7418 41.399L29.5514 33.561C29.6749 33.5895 30.0439 33.6667 30.6583 33.792C31.2727 33.9174 31.7727 34.0252 32.1592 34.1145C32.5456 34.2037 33.0739 34.3497 33.7436 34.5535C34.4127 34.7565 34.9688 34.9578 35.4115 35.1577C35.8537 35.3577 36.3266 35.6172 36.8311 35.9375C37.3352 36.2573 37.7255 36.5957 38.0014 36.9525C38.2772 37.3097 38.4811 37.7307 38.6129 38.2172C38.7454 38.7036 38.7471 39.2252 38.6185 39.7818C38.5184 40.2151 38.3542 40.5918 38.125 40.9136Z" fill="white"/>
</g>
<defs>
<linearGradient id="paint0_linear" x1="0" y1="0" x2="66" y2="66" gradientUnits="userSpaceOnUse">
<stop stop-color="#FFBE40"/>
<stop offset="1" stop-color="#FF9C40"/>
</linearGradient>
<clipPath id="clip0">
<rect x="18.1479" y="9.24023" width="39.6" height="39.6" transform="rotate(13 18.1479 9.24023)" fill="white"/>
</clipPath>
</defs>
</svg>

<svg width="66" height="66" fill="none" xmlns="http://www.w3.org/2000/svg"><rect width="66" height="66" rx="12" fill="url(#a)"/><g clip-path="url(#b)"><path d="M45.61 36.902c-.63-1.367-1.799-2.475-3.508-3.325 2.575-.643 4.048-2.404 4.42-5.282.142-1.042.064-1.991-.234-2.85a5.451 5.451 0 0 0-1.496-2.25 10.809 10.809 0 0 0-2.38-1.649c-.887-.457-1.93-.88-3.126-1.27l1.35-5.844-3.571-.825-1.312 5.681a131.23 131.23 0 0 0-2.84-.606l1.323-5.728-3.571-.824-1.35 5.843a82.298 82.298 0 0 1-2.254-.496l-4.91-1.158-.879 3.803 2.574.594c1.175.272 1.742.956 1.7 2.054l-1.537 6.655c.155.036.277.072.366.109l-.371-.086-2.152 9.322c-.305.76-.845 1.05-1.618.872l-2.573-.594-1.7 4.077 4.639 1.071c.293.068.717.17 1.272.305.555.137.971.237 1.25.301l-1.365 5.913 3.571.825 1.35-5.844c.645.166 1.586.391 2.823.677l-1.344 5.82 3.571.824 1.365-5.913c1.282.231 2.433.376 3.454.431a14.09 14.09 0 0 0 3.002-.15c.98-.156 1.835-.435 2.562-.837.728-.401 1.385-.975 1.973-1.718.586-.744 1.06-1.652 1.422-2.725.698-2.102.732-3.837.103-5.203zm-13.59-14.03.918.199c.505.108.924.197 1.258.266.334.069.778.192 1.332.368a13.37 13.37 0 0 1 1.383.515c.368.166.764.392 1.187.677.423.285.744.587.963.906.22.32.38.699.482 1.137.102.44.095.914-.023 1.424-.1.433-.26.81-.482 1.135-.22.323-.498.572-.832.748a6.52 6.52 0 0 1-1.003.428c-.334.11-.742.166-1.223.17-.481.002-.899-.005-1.253-.021-.354-.017-.79-.073-1.305-.167a82.17 82.17 0 0 1-1.17-.222 25.568 25.568 0 0 1-1.078-.248c-.455-.114-.72-.18-.798-.197l1.644-7.119zm6.105 18.042c-.23.321-.49.587-.782.797-.293.208-.652.37-1.077.483a8.06 8.06 0 0 1-1.214.233 9.2 9.2 0 0 1-1.361.028c-.525-.024-.98-.06-1.369-.108a24.81 24.81 0 0 1-1.377-.22c-.53-.1-.944-.182-1.237-.25a71.105 71.105 0 0 1-1.11-.269c-.448-.11-.732-.18-.856-.209l1.81-7.838c.123.029.492.106 1.106.231a60.43 60.43 0 0 1 1.501.322c.387.09.915.236 1.585.44.669.203 1.225.404 1.667.604.443.2.916.46 1.42.78.504.32.894.658 1.17 1.014.276.358.48.779.612 1.265.132.487.134 1.008.005 1.565-.1.433-.264.81-.493 1.132z" fill="#fff"/></g><defs><linearGradient id="a" x1="0" y1="0" x2="66" y2="66" gradientUnits="userSpaceOnUse"><stop stop-color="#FFBE40"/><stop offset="1" stop-color="#FF9C40"/></linearGradient><clipPath id="b"><path transform="rotate(13 18.148 9.24)" fill="#fff" d="M18.148 9.24h39.6v39.6h-39.6z"/></clipPath></defs></svg>
